X: 466
T: Mary My Bright Pet
N:"Spirited" "collected by F.O'Neill"
N:Irish title: peata.d geal a .maire
B:O'Neill's 466
Z:Transcribed by henrik.norbeck@mailbox.swipnet.se
M:6/8
L:1/8
K:Am
(A/B/) | c>de ede | cAF G2 E | EAB (~cB)c | Add d2 B |
{d}cBA G^F^G | Ade (~fe)d | eaa ged | cAA A2 ||
(c/B/) | A2 ^G AE^F | GAF GEF | E^F^G AB(c/d/) | ege dcB |
A2 B {d}cBA | ^G2 A Bcd | (e^f)(g/a/) ged | cAA A2 ||


